!!!COM: Palestrina, Giovanni Perluigi da
!!!OPR: Missa Hodie Christus Natus Est
!!!OMD: Credo
!!!OTL: Et unam sanctam
**kern	**kern	**kern	**kern	**kern	**kern	**kern	**kern
*Ibass	*Itenor	*Itenor	*Icalto	*Ibass	*Icalto	*Icant	*Icant
!Bassus	!Tenor 2	!Tenor 1	!Altus	!Bassus	!Altus	!Cantus 2	!Cantus 1
*clefF4	*clefGv2	*clefGv2	*clefG2	*clefF4	*clefG2	*clefG2	*clefG2
*k[]	*k[]	*k[]	*k[]	*k[]	*k[]	*k[]	*k[]
*G:mix	*G:mix	*G:mix	*G:mix	*G:mix	*G:mix	*G:mix	*G:mix
*M4/2	*M4/2	*M4/2	*M4/2	*M4/2	*M4/2	*M4/2	*M4/2
=150	=150	=150	=150	=150	=150	=150	=150
1C	1e	1c	1g	1c	1g	1cc	1ee
2C	2c	2e	2g	2c	2g	2cc	2ee
2C	2e	2g	2c	2c	2g	2cc	2ee
=151	=151	=151	=151	=151	=151	=151	=151
1C	2g	4e	1e	1c	1g	1cc	1ee
.	.	4d	.	.	.	.	.
.	2G	2c	.	.	.	.	.
2G	1B	2d	2g	2G	2g	2b	2dd
2G	.	2G	2g	2B	2d	2dd	2dd
=152	=152	=152	=152	=152	=152	=152	=152
2.C	2e	2.G	2g	2.c	2.g	2.ee	2.cc
.	2c	.	2e	.	.	.	.
4C	.	4A	.	4c	4g	4ee	4cc
1G	1d	1B	1g	1G	1g	1dd	1b
=153	=153	=153	=153	=153	=153	=153	=153
2r	2r	2r	2r	2r	2r	2r	2r
2C	2c	2e	2e	2c	2g	2ee	2cc
2C	2e	2c	2g	2c	2g	2ee	2cc
2C	2g	2e	2c	2c	2g	2ee	2cc
=154	=154	=154	=154	=154	=154	=154	=154
2.C	2e	2g	2.e	2.c	2.g	2.ee	2.cc
.	2c	2G	.	.	.	.	.
4C	.	.	4e	4c	4g	4ee	4cc
2G	2d	2B	2g	2G	2g	2dd	2b
2G	2G	2B	2g	2B	2d	2dd	2dd
=155	=155	=155	=155	=155	=155	=155	=155
2.C	2.G	2e	2g	2.c	2.g	2.cc	2.ee
.	.	2c	2e	.	.	.	.
4C	4A	.	.	4c	4g	4cc	4ee
1G	1B	1d	1g	[1G	[1g	[1b	[1dd
=156	=156	=156	=156	=156	=156	=156	=156
2r	2r	2r	2r	1G]	1g]	1b]	1dd]
2G	2d	2B	2g	.	.	.	.
2.G	2.d	2.B	2.g	1r	1r	1r	1r
4G	4d	4B	4g	.	.	.	.
=157	=157	=157	=157	=157	=157	=157	=157
2C	1e	2c	1g	0r	0r	0r	0r
2c	.	2e	.	.	.	.	.
4c	2r	4e	2r	.	.	.	.
4B	.	4d	.	.	.	.	.
4A	2e	4c	2cc	.	.	.	.
4G	.	4B	.	.	.	.	.
=158	=158	=158	=158	=158	=158	=158	=158
0A	4e	2.c	4cc	0r	0r	0r	0r
.	4d	.	4b	.	.	.	.
.	4c	.	4a	.	.	.	.
.	4B	4d	4g	.	.	.	.
.	[1c	1e	2a	.	.	.	.
.	.	.	2a	.	.	.	.
=159	=159	=159	=159	=159	=159	=159	=159
1A	2c]	2r	4f	0r	0r	0r	0r
.	.	.	4e	.	.	.	.
.	2c	2e	1e	.	.	.	.
1F	1A	1a	.	.	.	.	.
.	.	.	2d	.	.	.	.
=160	=160	=160	=160	=160	=160	=160	=160
1E	1B	1g#	1e	1r	1r	1r	1r
1r	1r	1r	1r	2.A	2.a	2.ee	2.cc#
.	.	.	.	4A	4a	4ee	4cc#
=161	=161	=161	=161	=161	=161	=161	=161
1r	2r	1r	1r	2A	2a	2ee	2cc#
.	2.A	.	.	2A	2a	2ee	2cc#
2.D	.	2.d	2.a	1d	[1a	1ff#	1dd
.	4A	.	.	.	.	.	.
.	2A	.	.	.	.	.	.
4D	.	4d	4a	.	.	.	.
=162	=162	=162	=162	=162	=162	=162	=162
2D	2A	2d	2a	1d	2a]	1ff#	1dd
2D	1d	2d	2a	.	2d	.	.
1G	.	1B	1d	2r	2r	2r	2r
.	2G	.	.	[2G	2d	2gg	[2b
=163	=163	=163	=163	=163	=163	=163	=163
1G	2r	1B	1d	2G]	1g	1dd	2b]
.	2.g	.	.	2B	.	.	2dd
2r	.	2r	2r	1c	1g	1ee	1cc
.	4f	.	.	.	.	.	.
[2C	4e	[2c	[2g	.	.	.	.
.	4d	.	.	.	.	.	.
=164	=164	=164	=164	=164	=164	=164	=164
2C]	2e	2c]	2g]	1C	1g	1ee	1cc
2E	2e	2c	2g	.	.	.	.
1F	1c	4A	1f	1r	1r	1r	1r
.	.	4B	.	.	.	.	.
.	.	4c	.	.	.	.	.
.	.	4A	.	.	.	.	.
=165	=165	=165	=165	=165	=165	=165	=165
0G	0g	2B	1e	1r	1r	1r	1r
.	.	1c	.	.	.	.	.
.	.	.	1d	2r	2r	2r	2r
.	.	2B	.	[2G	[2g	[2dd	[2b
=166	=166	=166	=166	=166	=166	=166	=166
1r	0r	1r	1r	2G]	2g]	2dd]	2b]
.	.	.	.	2E	2g	2cc#	2g
2r	.	2r	2r	1D	1f#	1dd	1a
[2d	.	2d	2a	.	.	.	.
=167	=167	=167	=167	=167	=167	=167	=167
2d]	2.d	2G	1g	1G	1g	1dd	1b
2B	.	2.d	.	.	.	.	.
.	4d	.	.	.	.	.	.
1A	1e	.	1a	1r	1r	1r	1r
.	.	4c#	.	.	.	.	.
.	.	2c#	.	.	.	.	.
=168	=168	=168	=168	=168	=168	=168	=168
1D	1f#	1d	1a	2r	2r	2r	2r
.	.	.	.	1d	2d	1dd	1a
1r	1r	1r	1r	.	1f#	.	.
.	.	.	.	2d	.	2dd	2b
=169	=169	=169	=169	=169	=169	=169	=169
0r	0r	0r	0r	2.c	2.g	2.ee	2.cc
.	.	.	.	4B	4g	4dd	4dd
.	.	.	.	2c	2g	2cc	2ee
.	.	.	.	2G	2g	2b	2dd
=170	=170	=170	=170	=170	=170	=170	=170
0r	0r	0r	0r	2A	2f	2a	2dd
.	.	.	.	2A	2e	2a	2cc#
.	.	.	.	1D	1f	1a	1dd
=171	=171	=171	=171	=171	=171	=171	=171
2r	2r	2r	2r	1A	1e	1a	1cc#
1A	1e	2A	2a	.	.	.	.
.	.	1c#	1e	1r	1r	1r	1r
2A	2A	.	.	.	.	.	.
=172	=172	=172	=172	=172	=172	=172	=172
2.G	2.B	2.d	2.g	0r	0r	0r	0r
4F#	4A	4d	4a	.	.	.	.
2G	2d	2B	2g	.	.	.	.
2D	2d	2A	2f	.	.	.	.
=173	=173	=173	=173	=173	=173	=173	=173
2E	2c	2G	2e	0r	0r	0r	0r
2E	2B	2G	2e	.	.	.	.
1C	1e	1c	1g	.	.	.	.
*-	*-	*-	*-	*-	*-	*-	*-
!!!CDT: 1525/^1526/-1594/2/2
!!!OCY: Italia
!!!AGN: Mass (Parody)
!!!AST: renaissance, vocal
!!!ASW: Motet 1575 (Palestrina)
!!!PWK: Masses, Book 8vce
!!!RNB: Cadence finals: C,D
!!!YOR: Le Opere Complete, v. 30, p. 59
!!!YOO: Rome, Italy: Fratelli Scalera
!!!END: 1992//
!!!EED: John Miller
!!!YEC: Copyright 2000, John Miller
!!!YEN: United States of America
!!!YEM: Rights to all derivative electronic formats reserved.
!!!YEM: Refer to licensing agreement for further details.
!!!YEM: This file must be accompanied by the licensing agreement.
!!!YEM: A copy of the licensing agreement may be found at http://www.music-cog.ohio-state.edu/HumdrumDatabases/Palestrina/license.txt
!!!EMD: converted to Humdrum by Bret Aarden
